Newaita-dark/actions/16/edit-select-none.svg

<?xml version="1.0" encoding="UTF-8"?>
<svg xmlns="http://www.w3.org/2000/svg" xmlns:xlink="http://www.w3.org/1999/xlink" width="16pt" height="16pt" viewBox="0 0 16 16" version="1.1">
<g id="surface1">
<path style=" stroke:none;fill-rule:nonzero;fill:rgb(74.117649%,74.117649%,74.117649%);fill-opacity:0.392157;" d="M 3.96875 3.433594 C 3.601562 3.433594 3.308594 3.726562 3.308594 4.09375 L 3.308594 6.738281 C 3.308594 7.105469 3.601562 7.402344 3.96875 7.402344 L 6.613281 7.402344 C 6.980469 7.402344 7.277344 7.105469 7.277344 6.738281 L 7.277344 4.09375 C 7.277344 3.726562 6.980469 3.433594 6.613281 3.433594 Z M 4.628906 4.425781 L 5.953125 4.425781 C 6.136719 4.425781 6.285156 4.574219 6.285156 4.753906 L 6.285156 6.078125 C 6.285156 6.261719 6.136719 6.410156 5.953125 6.410156 L 4.628906 6.410156 C 4.449219 6.410156 4.300781 6.261719 4.300781 6.078125 L 4.300781 4.753906 C 4.300781 4.574219 4.449219 4.425781 4.628906 4.425781 Z M 4.628906 4.425781 "/>
<path style=" stroke:none;fill-rule:nonzero;fill:rgb(74.117649%,74.117649%,74.117649%);fill-opacity:0.392157;" d="M 9.261719 3.433594 C 8.894531 3.433594 8.601562 3.726562 8.601562 4.09375 L 8.601562 6.738281 C 8.601562 7.105469 8.894531 7.402344 9.261719 7.402344 L 11.90625 7.402344 C 12.273438 7.402344 12.570312 7.105469 12.570312 6.738281 L 12.570312 4.09375 C 12.570312 3.726562 12.273438 3.433594 11.90625 3.433594 Z M 9.921875 4.425781 L 11.246094 4.425781 C 11.429688 4.425781 11.578125 4.574219 11.578125 4.753906 L 11.578125 6.078125 C 11.578125 6.261719 11.429688 6.410156 11.246094 6.410156 L 9.921875 6.410156 C 9.738281 6.410156 9.59375 6.261719 9.59375 6.078125 L 9.59375 4.753906 C 9.59375 4.574219 9.738281 4.425781 9.921875 4.425781 Z M 9.921875 4.425781 "/>
<path style=" stroke:none;fill-rule:nonzero;fill:rgb(74.117649%,74.117649%,74.117649%);fill-opacity:0.392157;" d="M 3.96875 8.726562 C 3.601562 8.726562 3.308594 9.019531 3.308594 9.386719 L 3.308594 12.03125 C 3.308594 12.398438 3.601562 12.695312 3.96875 12.695312 L 6.613281 12.695312 C 6.980469 12.695312 7.277344 12.398438 7.277344 12.03125 L 7.277344 9.386719 C 7.277344 9.019531 6.980469 8.726562 6.613281 8.726562 Z M 4.628906 9.71875 L 5.953125 9.71875 C 6.136719 9.71875 6.285156 9.863281 6.285156 10.046875 L 6.285156 11.371094 C 6.285156 11.554688 6.136719 11.703125 5.953125 11.703125 L 4.628906 11.703125 C 4.449219 11.703125 4.300781 11.554688 4.300781 11.371094 L 4.300781 10.046875 C 4.300781 9.863281 4.449219 9.71875 4.628906 9.71875 Z M 4.628906 9.71875 "/>
<path style=" stroke:none;fill-rule:nonzero;fill:rgb(74.117649%,74.117649%,74.117649%);fill-opacity:0.392157;" d="M 9.261719 8.726562 C 8.894531 8.726562 8.601562 9.019531 8.601562 9.386719 L 8.601562 12.03125 C 8.601562 12.398438 8.894531 12.695312 9.261719 12.695312 L 11.90625 12.695312 C 12.273438 12.695312 12.570312 12.398438 12.570312 12.03125 L 12.570312 9.386719 C 12.570312 9.019531 12.273438 8.726562 11.90625 8.726562 Z M 9.921875 9.71875 L 11.246094 9.71875 C 11.429688 9.71875 11.578125 9.863281 11.578125 10.046875 L 11.578125 11.371094 C 11.578125 11.554688 11.429688 11.703125 11.246094 11.703125 L 9.921875 11.703125 C 9.738281 11.703125 9.59375 11.554688 9.59375 11.371094 L 9.59375 10.046875 C 9.59375 9.863281 9.738281 9.71875 9.921875 9.71875 Z M 9.921875 9.71875 "/>
<path style=" stroke:none;fill-rule:nonzero;fill:rgb(14.901961%,77.64706%,85.490197%);fill-opacity:0.996078;" d="M 1.984375 0.785156 C 1.25 0.785156 0.660156 1.375 0.660156 2.109375 L 0.660156 4.09375 C 0.660156 4.277344 0.878906 4.425781 1.148438 4.425781 L 1.167969 4.425781 C 1.4375 4.425781 1.652344 4.277344 1.652344 4.09375 L 1.652344 2.441406 C 1.652344 2.074219 1.949219 1.777344 2.316406 1.777344 L 3.96875 1.777344 C 4.152344 1.777344 4.300781 1.558594 4.300781 1.28125 C 4.300781 1.007812 4.152344 0.785156 3.96875 0.785156 Z M 11.90625 0.785156 C 11.722656 0.785156 11.578125 1.007812 11.578125 1.28125 C 11.578125 1.558594 11.722656 1.777344 11.90625 1.777344 L 13.5625 1.777344 C 13.925781 1.777344 14.222656 2.074219 14.222656 2.441406 L 14.222656 4.09375 C 14.222656 4.277344 14.445312 4.425781 14.71875 4.425781 C 14.992188 4.425781 15.214844 4.277344 15.214844 4.09375 L 15.214844 2.109375 C 15.214844 1.375 14.625 0.785156 13.890625 0.785156 Z M 1.148438 11.703125 C 0.878906 11.703125 0.660156 11.847656 0.660156 12.03125 L 0.660156 14.015625 C 0.660156 14.75 1.25 15.339844 1.984375 15.339844 L 3.96875 15.339844 C 4.152344 15.339844 4.300781 15.117188 4.300781 14.84375 C 4.300781 14.570312 4.152344 14.347656 3.96875 14.347656 L 2.316406 14.347656 C 1.949219 14.347656 1.652344 14.050781 1.652344 13.6875 L 1.652344 12.03125 C 1.652344 11.847656 1.4375 11.703125 1.167969 11.703125 Z M 14.71875 11.703125 C 14.445312 11.703125 14.222656 11.847656 14.222656 12.03125 L 14.222656 13.6875 C 14.222656 14.050781 13.925781 14.347656 13.5625 14.347656 L 11.90625 14.347656 C 11.722656 14.347656 11.578125 14.570312 11.578125 14.84375 C 11.578125 15.117188 11.722656 15.339844 11.90625 15.339844 L 13.890625 15.339844 C 14.625 15.339844 15.214844 14.75 15.214844 14.015625 L 15.214844 12.03125 C 15.214844 11.847656 14.992188 11.703125 14.71875 11.703125 Z M 14.71875 11.703125 "/>
</g>
</svg>

<svg xmlns="http://www.w3.org/2000/svg" width="16pt" height="16pt" viewBox="0 0 16 16"><path d="M3.969 3.434a.657.657 0 0 0-.66.66v2.644a.66.66 0 0 0 .66.664h2.644a.664.664 0 0 0 .664-.664V4.094a.66.66 0 0 0-.664-.66zm.66.992h1.324a.33.33 0 0 1 .332.328v1.324a.332.332 0 0 1-.332.332H4.63a.33.33 0 0 1-.328-.332V4.754a.33.33 0 0 1 .328-.328zm0 0M9.262 3.434a.657.657 0 0 0-.66.66v2.644a.66.66 0 0 0 .66.664h2.644a.664.664 0 0 0 .664-.664V4.094a.66.66 0 0 0-.664-.66zm.66.992h1.324a.33.33 0 0 1 .332.328v1.324a.332.332 0 0 1-.332.332H9.922a.328.328 0 0 1-.328-.332V4.754c0-.18.144-.328.328-.328zm0 0M3.969 8.727a.657.657 0 0 0-.66.66v2.644a.66.66 0 0 0 .66.664h2.644a.664.664 0 0 0 .664-.664V9.387a.66.66 0 0 0-.664-.66zm.66.992h1.324c.184 0 .332.144.332.328v1.324a.332.332 0 0 1-.332.332H4.63a.33.33 0 0 1-.328-.332v-1.324c0-.184.148-.328.328-.328zm0 0M9.262 8.727a.657.657 0 0 0-.66.66v2.644a.66.66 0 0 0 .66.664h2.644a.664.664 0 0 0 .664-.664V9.387a.66.66 0 0 0-.664-.66zm.66.992h1.324c.184 0 .332.144.332.328v1.324a.332.332 0 0 1-.332.332H9.922a.328.328 0 0 1-.328-.332v-1.324c0-.184.144-.328.328-.328zm0 0" fill="#bdbdbd" fill-opacity=".392"/><path d="M1.984.785A1.32 1.32 0 0 0 .66 2.11v1.985c0 .183.219.332.488.332h.02c.27 0 .484-.149.484-.332V2.44c0-.367.297-.664.664-.664H3.97c.183 0 .332-.218.332-.496 0-.273-.149-.496-.332-.496zm9.922 0c-.183 0-.328.223-.328.496 0 .278.145.496.328.496h1.656c.364 0 .66.297.66.664v1.653c0 .183.223.332.497.332.273 0 .496-.149.496-.332V2.109A1.32 1.32 0 0 0 13.89.785zM1.148 11.703c-.27 0-.488.145-.488.328v1.985c0 .734.59 1.324 1.324 1.324H3.97c.183 0 .332-.223.332-.496 0-.274-.149-.496-.332-.496H2.316a.663.663 0 0 1-.664-.66V12.03c0-.183-.214-.328-.484-.328zm13.57 0c-.273 0-.495.145-.495.328v1.656c0 .364-.297.66-.66.66h-1.657c-.183 0-.328.223-.328.497 0 .273.145.496.328.496h1.985a1.32 1.32 0 0 0 1.324-1.324V12.03c0-.183-.223-.328-.496-.328zm0 0" fill="#26c6da" fill-opacity=".996"/></svg>
